Newaita-dark/actions/22/document-open-recent.svg

<svg height="22" viewBox="0 0 22 22" width="22" xmlns="http://www.w3.org/2000/svg"><g fill="#e0e0e0"><path d="m15.449219 11.074219c-2.5 0-4.511719 2.011719-4.511719 4.511719v.070312c0 2.5 2.011719 4.511719 4.511719 4.511719h.070312c2.5 0 4.511719-2.011719 4.511719-4.511719v-.070312c0-2.5-2.011719-4.511719-4.511719-4.511719zm.015625 1.816406h.039062c1.5 0 2.710938 1.210937 2.710938 2.710937v.039063c0 1.5-1.210938 2.710937-2.710938 2.710937h-.039062c-1.5 0-2.710938-1.210937-2.710938-2.710937v-.039063c0-1.5 1.210938-2.710937 2.710938-2.710937zm0 0"/><path d="m13.855469 14.027344c.175781-.179688.464843-.179688.644531 0l1.285156 1.285156c.175782.179688.175782.464844 0 .644531-.179687.175781-.464844.175781-.644531 0l-1.285156-1.285156c-.179688-.179687-.179688-.46875 0-.644531zm0 0"/><path d="m17.660156 15.046875c.066406.242187-.078125.492187-.320312.558594l-1.757813.46875c-.242187.066406-.492187-.078125-.558593-.320313-.0625-.242187.078124-.492187.320312-.558594l1.757812-.46875c.242188-.066406.492188.078126.558594.320313zm0 0"/><path d="m5.457031 1.992188c-1.007812 0-1.820312.808593-1.820312 1.816406v14.554687c0 1.007813.8125 1.820313 1.820312 1.820313h4.546875v-1.820313h-3.636718c-.503907 0-.910157-.40625-.910157-.910156v-12.734375c0-.503906.40625-.910156.910157-.910156h3.636718v-.003906h3.265625l3.105469 3.109374v1.902344h-.003906v.453125h1.820312v-.453125h-.003906v-2.277344c0-.238281-.09375-.46875-.265625-.640624l-3.636719-3.636719c-.171875-.171875-.402344-.265625-.640625-.265625h-3.640625v-.003906zm0 0"/></g></svg>

<?xml version="1.0" encoding="UTF-8"?>
<svg xmlns="http://www.w3.org/2000/svg" xmlns:xlink="http://www.w3.org/1999/xlink" width="22px" height="22px" viewBox="0 0 22 22" version="1.1">
<g id="surface1">
<path style=" stroke:none;fill-rule:nonzero;fill:rgb(87.843138%,87.843138%,87.843138%);fill-opacity:1;" d="M 15.449219 11.074219 C 12.949219 11.074219 10.9375 13.085938 10.9375 15.585938 L 10.9375 15.65625 C 10.9375 18.15625 12.949219 20.167969 15.449219 20.167969 L 15.519531 20.167969 C 18.019531 20.167969 20.03125 18.15625 20.03125 15.65625 L 20.03125 15.585938 C 20.03125 13.085938 18.019531 11.074219 15.519531 11.074219 Z M 15.464844 12.890625 L 15.503906 12.890625 C 17.003906 12.890625 18.214844 14.101562 18.214844 15.601562 L 18.214844 15.640625 C 18.214844 17.140625 17.003906 18.351562 15.503906 18.351562 L 15.464844 18.351562 C 13.964844 18.351562 12.753906 17.140625 12.753906 15.640625 L 12.753906 15.601562 C 12.753906 14.101562 13.964844 12.890625 15.464844 12.890625 Z M 15.464844 12.890625 "/>
<path style=" stroke:none;fill-rule:nonzero;fill:rgb(87.843138%,87.843138%,87.843138%);fill-opacity:1;" d="M 13.855469 14.027344 C 14.03125 13.847656 14.320312 13.847656 14.5 14.027344 L 15.785156 15.3125 C 15.960938 15.492188 15.960938 15.777344 15.785156 15.957031 C 15.605469 16.132812 15.320312 16.132812 15.140625 15.957031 L 13.855469 14.671875 C 13.675781 14.492188 13.675781 14.203125 13.855469 14.027344 Z M 13.855469 14.027344 "/>
<path style=" stroke:none;fill-rule:nonzero;fill:rgb(87.843138%,87.843138%,87.843138%);fill-opacity:1;" d="M 17.660156 15.046875 C 17.726562 15.289062 17.582031 15.539062 17.339844 15.605469 L 15.582031 16.074219 C 15.339844 16.140625 15.089844 15.996094 15.023438 15.753906 C 14.960938 15.511719 15.101562 15.261719 15.34375 15.195312 L 17.101562 14.726562 C 17.34375 14.660156 17.59375 14.804688 17.660156 15.046875 Z M 17.660156 15.046875 "/>
<path style=" stroke:none;fill-rule:nonzero;fill:rgb(87.843138%,87.843138%,87.843138%);fill-opacity:1;" d="M 5.457031 1.992188 C 4.449219 1.992188 3.636719 2.800781 3.636719 3.808594 L 3.636719 18.363281 C 3.636719 19.371094 4.449219 20.183594 5.457031 20.183594 L 10.003906 20.183594 L 10.003906 18.363281 L 6.367188 18.363281 C 5.863281 18.363281 5.457031 17.957031 5.457031 17.453125 L 5.457031 4.71875 C 5.457031 4.214844 5.863281 3.808594 6.367188 3.808594 L 10.003906 3.808594 L 10.003906 3.804688 L 13.269531 3.804688 L 16.375 6.914062 L 16.375 8.816406 L 16.371094 8.816406 L 16.371094 9.269531 L 18.191406 9.269531 L 18.191406 8.816406 L 18.1875 8.816406 L 18.1875 6.539062 C 18.1875 6.300781 18.09375 6.070312 17.921875 5.898438 L 14.285156 2.261719 C 14.113281 2.089844 13.882812 1.996094 13.644531 1.996094 L 10.003906 1.996094 L 10.003906 1.992188 Z M 5.457031 1.992188 "/>
</g>
</svg>
